X:24
T:score118
L:1/8
Q:1/4=96
M:3/4
I:linebreak $
K:F
 (F4 A>F | c4 B/A/G/F/ |!<(! EGB!<)!!>(!dcB!>)! | !>!^G2 A2) z2 |$ (f3 g/f/ ed | (c3) d/c/ BA | %6
 (G/)A/G/^F/ G/A/B/c/ d=F | FEPDCDE | F4) z2 |] %9
